X: 18437
T: Hunting The Squirrel
R: jig
M: 6/8
K: Gmajor
D|G2 d d2 e|d3 B2 A|GAB A2 D|GAB A2 D|
G2 d d2 e|d3 B2 A|GAB A2 A|1 G3 z2:|2 G3G z2||
|:c2 d edc|c2 d edc|c2 d e2 f|g3 gfe|
d B2 d B2|d B2 d3|GAB A2 G|1 G3G z2:|2 G3 z2||

